icons/desktop/16/svg/edit-16.svg

<svg width="16" height="16" viewBox="0 0 16 16" fill="none" xmlns="http://www.w3.org/2000/svg">
<path fill-rule="evenodd" clip-rule="evenodd" d="M2.54537 1.76607C3.50704 0.804405 5.04486 0.739788 6.0815 1.62447L6.67037 2.13229C8.04993 3.33665 9.47426 4.67891 10.9126 6.16939C12.288 7.59535 13.5233 8.99833 14.6284 10.3501C14.8736 10.6491 15.0004 11.0178 15.0004 11.394V14.2514C15.0002 14.6653 14.6643 15.0012 14.2504 15.0014H11.393C11.0169 15.0014 10.6482 14.8755 10.3491 14.6303C9.16657 13.6627 7.9447 12.5954 6.7026 11.4233L6.16842 10.9135C4.46462 9.2704 2.95589 7.64334 1.6235 6.08248C0.738811 5.04584 0.803428 3.50802 1.7651 2.54635L2.54537 1.76607ZM4.63033 7.2026C5.43485 8.06937 6.2926 8.95024 7.20943 9.83443C8.25611 10.8433 9.29012 11.775 10.2993 12.6342L11.3003 13.4692C11.3232 13.488 11.3532 13.5014 11.393 13.5014H13.5004V11.394C13.5004 11.3542 13.488 11.3241 13.4692 11.3012L13.4682 11.3003C12.3877 9.9785 11.1795 8.60587 9.83346 7.21041C8.9488 6.29365 8.06898 5.43476 7.2026 4.63033L4.63033 7.2026ZM5.10787 2.7651C4.66852 2.39026 4.01608 2.41646 3.60592 2.82662L2.82564 3.60689C2.41548 4.01706 2.38928 4.6695 2.76412 5.10885C3.0415 5.43379 3.32744 5.76096 3.62057 6.09127L6.09029 3.62154C5.75993 3.32837 5.43287 3.04231 5.10787 2.7651Z" fill="black"/>
</svg>

<!-- This Source Code Form is subject to the terms of the Mozilla Public
   - License, v. 2.0. If a copy of the MPL was not distributed with this
   - file, You can obtain one at http://mozilla.org/MPL/2.0/. -->
<svg xmlns="http://www.w3.org/2000/svg" width="16" height="16" fill="context-fill" fill-opacity="context-fill-opacity" viewBox="0 0 16 16">
    <path fill-rule="evenodd" d="M2.545 1.766a2.606 2.606 0 0 1 3.537-.142l.588.508a68.5 68.5 0 0 1 7.958 8.218c.246.3.372.668.372 1.044v2.857a.75.75 0 0 1-.75.75h-2.857c-.376 0-.745-.125-1.044-.37a69 69 0 0 1-3.646-3.208l-.535-.51a68 68 0 0 1-4.544-4.83 2.606 2.606 0 0 1 .141-3.537zM4.63 7.203a67 67 0 0 0 5.67 5.431l1 .835a.14.14 0 0 0 .093.032H13.5v-2.107q-.001-.06-.03-.093h-.002a67 67 0 0 0-6.265-6.67zm.478-4.438a1.106 1.106 0 0 0-1.502.062l-.78.78a1.106 1.106 0 0 0-.062 1.502q.416.487.857.982l2.47-2.47q-.496-.44-.983-.856" clip-rule="evenodd" />
</svg>
